X: 22234
T: La Fête De Village
R: reel
M: 4/4
K: Dmajor
|:a2ag f2 ef|g2 f2 e4|f2 d2 dcdf|edcB A2 fg|
a2ag f2 ef|g2 f2 e4|f2 a2 gfec|d4 d4:|
|:Adfd Acec|Adfd Acec|d2 a2 g2 f2|edef e2 [A2e2]|
Adfd Acec|Adfd Acec|d2 a2 gfec|d4 d4:|

